web/public/app-icon-black-bg.svg

<svg fill="none" height="1024" viewBox="0 0 1024 1024" width="1024" xmlns="http://www.w3.org/2000/svg"><path d="m0 0h1024v1024h-1024z" fill="#000"/><g clip-rule="evenodd" fill-rule="evenodd" transform="matrix(1.6384 0 0 1.6384 102.4 102.4)"><path d="m249.998 0c-138.073 0-249.998 111.93-249.998 249.998 0 138.077 111.925 250.002 249.998 250.002 138.072 0 250.002-111.925 250.002-250.002 0-138.068-111.93-249.998-250.002-249.998zm-146.535 249.998c0-80.924 65.606-146.535 146.535-146.535 80.928 0 146.534 65.611 146.534 146.535 0 80.933-65.606 146.534-146.534 146.534-80.929 0-146.535-65.601-146.535-146.534z" fill="#06f"/><path d="m396.192 259.497c.2-3.145.339-6.304.339-9.498 0-80.929-65.605-146.535-146.529-146.535-3.179 0-6.324.14-9.453.339-.847.055-1.69.125-2.527.19-2.571.209-5.118.483-7.649.822-.583.075-1.176.134-1.759.224-3.085.449-6.14.997-9.165 1.64-.528.114-1.046.244-1.574.363-2.552.574-5.078 1.211-7.575 1.914-.389.11-.792.184-1.181.294v.04c-12.917 3.747-25.096 9.204-36.273 16.141v-.02c-.304.189-.583.399-.882.588-1.994 1.256-3.952 2.556-5.876 3.907-.588.408-1.171.822-1.749 1.241-1.879 1.355-3.727 2.76-5.541 4.201-.399.324-.813.632-1.211.956-2.223 1.804-4.391 3.668-6.503 5.602-.185.169-.359.348-.544.518-1.863 1.724-3.672 3.498-5.441 5.312-.514.528-1.017 1.062-1.52 1.59-1.49 1.579-2.95 3.189-4.371 4.834-.453.523-.917 1.041-1.36 1.569-3.608 4.291-6.977 8.786-10.081 13.475-.404.613-.793 1.236-1.186 1.854-1.142 1.779-2.243 3.578-3.309 5.412-.409.702-.818 1.4-1.216 2.113-1.156 2.068-2.268 4.166-3.324 6.299-.194.393-.409.777-.603 1.176-1.226 2.526-2.377 5.103-3.463 7.709-.265.633-.504 1.276-.758 1.913-.797 2.004-1.555 4.022-2.267 6.065-.294.837-.578 1.685-.857 2.532-.668 2.033-1.291 4.091-1.869 6.164-.195.703-.409 1.395-.598 2.103-.723 2.751-1.381 5.531-1.949 8.342-.099.508-.174 1.032-.274 1.545-.443 2.317-.832 4.649-1.161 7.001-.129.922-.239 1.844-.349 2.766-.254 2.078-.458 4.171-.623 6.274-.069.887-.149 1.774-.204 2.666-.174 2.935-.289 5.885-.289 8.861 0 2.815.1 5.606.254 8.381.075 1.366.199 2.711.309 4.062.105 1.231.204 2.457.339 3.678.204 1.958.458 3.891.738 5.82.039.264.079.528.124.787 12.713 84.054 94.812 139.104 177.246 120.148 1.51-.344 3.025-.673 4.515-1.062.812-.214 1.62-.463 2.432-.692 2.008-.558 4.002-1.151 5.975-1.794.344-.115.698-.2 1.042-.314 2.252-.269 4.619-.499 7.146-.663 14.616-.952 54.308 28.534 71.824 25.525 4.39-20.771-19.121-55.325-7.644-75.348 5.352-9.349 11.641-16.221 17.018-29.77 1.395-3.509 2.621-7.156 3.742-10.894.125-.354.209-.727.334-1.086.872-2.596 1.679-5.218 2.407-7.874.11-.398.234-.792.339-1.191.817-3.079 1.54-6.199 2.158-9.358.024-.125.059-.25.084-.374.359-1.381.723-2.771 1.092-4.161.049-.997.074-1.984.109-2.98.045-.324.06-.658.105-.982.359-2.646.643-5.322.857-8.013.065-.783.13-1.56.179-2.347z" fill="#fff"/></g></svg>

<svg width="1024" height="1024" viewBox="0 0 1024 1024" fill="none" xmlns="http://www.w3.org/2000/svg">
<rect width="1024" height="1024" fill="black"/>
<g transform="translate(102.4 102.4) scale(1.6384)">
<path fill-rule="evenodd" clip-rule="evenodd" d="M249.998 0C111.925 0 0 111.93 0 249.998C0 388.075 111.925 500 249.998 500C388.07 500 500 388.075 500 249.998C500 111.93 388.07 0 249.998 0ZM103.463 249.998C103.463 169.074 169.069 103.463 249.998 103.463C330.926 103.463 396.532 169.074 396.532 249.998C396.532 330.931 330.926 396.532 249.998 396.532C169.069 396.532 103.463 330.931 103.463 249.998Z" fill="#0066ff"/>
<path fill-rule="evenodd" clip-rule="evenodd" d="M396.192 259.497C396.392 256.352 396.531 253.193 396.531 249.999C396.531 169.07 330.926 103.464 250.002 103.464C246.823 103.464 243.678 103.604 240.549 103.803C239.702 103.858 238.859 103.928 238.022 103.993C235.451 104.202 232.904 104.476 230.373 104.815C229.79 104.89 229.197 104.949 228.614 105.039C225.529 105.488 222.474 106.036 219.449 106.679C218.921 106.793 218.403 106.923 217.875 107.042C215.323 107.616 212.797 108.253 210.3 108.956C209.911 109.066 209.508 109.14 209.119 109.25V109.29C196.202 113.037 184.023 118.494 172.846 125.431V125.411C172.542 125.6 172.263 125.81 171.964 125.999C169.97 127.255 168.012 128.555 166.088 129.906C165.5 130.314 164.917 130.728 164.339 131.147C162.46 132.502 160.612 133.907 158.798 135.348C158.399 135.672 157.985 135.98 157.587 136.304C155.364 138.108 153.196 139.972 151.084 141.906C150.899 142.075 150.725 142.254 150.54 142.424C148.677 144.148 146.868 145.922 145.099 147.736C144.585 148.264 144.082 148.798 143.579 149.326C142.089 150.905 140.629 152.515 139.208 154.16C138.755 154.683 138.291 155.201 137.848 155.729C134.24 160.02 130.871 164.515 127.767 169.204C127.363 169.817 126.974 170.44 126.581 171.058C125.439 172.837 124.338 174.636 123.272 176.47C122.863 177.172 122.454 177.87 122.056 178.583C120.9 180.651 119.788 182.749 118.732 184.882C118.538 185.275 118.323 185.659 118.129 186.058C116.903 188.584 115.752 191.161 114.666 193.767C114.401 194.4 114.162 195.043 113.908 195.68C113.111 197.684 112.353 199.702 111.641 201.745C111.347 202.582 111.063 203.43 110.784 204.277C110.116 206.31 109.493 208.368 108.915 210.441C108.72 211.144 108.506 211.836 108.317 212.544C107.594 215.295 106.936 218.075 106.368 220.886C106.269 221.394 106.194 221.918 106.094 222.431C105.651 224.748 105.262 227.08 104.933 229.432C104.804 230.354 104.694 231.276 104.584 232.198C104.33 234.276 104.126 236.369 103.961 238.472C103.892 239.359 103.812 240.246 103.757 241.138C103.583 244.073 103.468 247.023 103.468 249.999C103.468 252.814 103.568 255.605 103.722 258.38C103.797 259.746 103.921 261.091 104.031 262.442C104.136 263.673 104.235 264.899 104.37 266.12C104.574 268.078 104.828 270.011 105.108 271.94C105.147 272.204 105.187 272.468 105.232 272.727C117.945 356.781 200.044 411.831 282.478 392.875C283.988 392.531 285.503 392.202 286.993 391.813C287.805 391.599 288.613 391.35 289.425 391.121C291.433 390.563 293.427 389.97 295.4 389.327C295.744 389.212 296.098 389.127 296.442 389.013C298.694 388.744 301.061 388.514 303.588 388.35C318.204 387.398 357.896 416.884 375.412 413.875C379.802 393.104 356.291 358.55 367.768 338.527C373.12 329.178 379.409 322.306 384.786 308.757C386.181 305.248 387.407 301.601 388.528 297.863C388.653 297.509 388.737 297.136 388.862 296.777C389.734 294.181 390.541 291.559 391.269 288.903C391.379 288.505 391.503 288.111 391.608 287.712C392.425 284.633 393.148 281.513 393.766 278.354C393.79 278.229 393.825 278.104 393.85 277.98C394.209 276.599 394.573 275.209 394.942 273.819C394.991 272.822 395.016 271.835 395.051 270.839C395.096 270.515 395.111 270.181 395.156 269.857C395.515 267.211 395.799 264.535 396.013 261.844C396.078 261.061 396.143 260.284 396.192 259.497Z" fill="white"/>
</g>
</svg>
